fs/image_multiple_28_regular.svg

<svg viewBox="0 0 28 28" fill="none" xmlns="http://www.w3.org/2000/svg" height="1em" width="1em">
  <path d="M22.9932 6.00782C23.8988 6.58285 24.5 7.59621 24.5 8.75V19.25C24.5 22.1495 22.1495 24.5 19.25 24.5H8.75C7.59621 24.5 6.58285 23.8988 6.00612 22.9925L6.12828 22.9982L6.25 23H19.25C21.3211 23 23 21.3211 23 19.25V6.25C23 6.16872 22.9977 6.08798 22.9932 6.00782ZM18.75 3C20.5449 3 22 4.45507 22 6.25V18.75C22 20.5449 20.5449 22 18.75 22H6.25C4.45507 22 3 20.5449 3 18.75V6.25C3 4.45507 4.45507 3 6.25 3H18.75ZM19.3315 20.4011L13.0246 14.2231C12.7595 13.9635 12.3499 13.9399 12.0586 14.1523L11.975 14.2231L5.66845 20.4011C5.8504 20.4651 6.04613 20.5 6.25 20.5H18.75C18.9539 20.5 19.1496 20.4651 19.3315 20.4011L13.0246 14.2231L19.3315 20.4011ZM18.75 4.5H6.25C5.2835 4.5 4.5 5.2835 4.5 6.25V18.75C4.5 18.958 4.5363 19.1576 4.6029 19.3427L10.9254 13.1515C11.7585 12.3355 13.0673 12.2967 13.9457 13.0349L14.0741 13.1515L20.3967 19.3437C20.4636 19.1583 20.5 18.9584 20.5 18.75V6.25C20.5 5.2835 19.7165 4.5 18.75 4.5ZM16.0004 7.75116C16.6904 7.75116 17.2497 8.31048 17.2497 9.00045C17.2497 9.69041 16.6904 10.2497 16.0004 10.2497C15.3105 10.2497 14.7512 9.69041 14.7512 9.00045C14.7512 8.31048 15.3105 7.75116 16.0004 7.75116Z" fill="#212121"/>
</svg>

<svg viewBox="0 0 28 28" fill="none" xmlns="http://www.w3.org/2000/svg" height="1em" width="1em">
  <path d="M22.993 6.008A3.243 3.243 0 0 1 24.5 8.75v10.5c0 2.9-2.35 5.25-5.25 5.25H8.75a3.247 3.247 0 0 1-2.744-1.508l.122.006.122.002h13A3.75 3.75 0 0 0 23 19.25v-13a4.32 4.32 0 0 0-.007-.242ZM18.75 3A3.25 3.25 0 0 1 22 6.25v12.5A3.25 3.25 0 0 1 18.75 22H6.25A3.25 3.25 0 0 1 3 18.75V6.25A3.25 3.25 0 0 1 6.25 3h12.5Zm.581 17.401-6.306-6.178a.75.75 0 0 0-.966-.07l-.084.07-6.307 6.178c.182.064.378.099.582.099h12.5c.204 0 .4-.035.581-.099l-6.306-6.178 6.306 6.178ZM18.75 4.5H6.25A1.75 1.75 0 0 0 4.5 6.25v12.5c0 .208.036.408.103.593l6.322-6.191a2.25 2.25 0 0 1 3.02-.117l.13.117 6.322 6.192a1.75 1.75 0 0 0 .103-.594V6.25a1.75 1.75 0 0 0-1.75-1.75ZM16 7.751a1.25 1.25 0 1 1 0 2.499 1.25 1.25 0 0 1 0-2.499Z" fill="#212121"/>
</svg>
